static/img/menus/ico-play.svg

<svg width="16" height="16" viewBox="0 0 16 16" fill="none" xmlns="http://www.w3.org/2000/svg">
<g clip-path="url(#clip0_382_133)">
<path d="M13.0257 8.63848C13.0923 8.6127 13.1509 8.56955 13.1952 8.51351C13.2395 8.45747 13.268 8.39058 13.2777 8.31979C13.3147 8.25116 13.3341 8.17442 13.3341 8.09645C13.3341 8.01848 13.3147 7.94174 13.2777 7.87311C13.2342 7.74031 13.1449 7.62734 13.0257 7.55442L3.61459 2.07149C3.48059 2.00656 3.32982 1.98452 3.18284 2.00838C3.03585 2.03224 2.8998 2.10084 2.79322 2.20483C2.71404 2.34068 2.67047 2.49433 2.66654 2.65152V13.3654C2.66497 13.5035 2.70955 13.6382 2.79322 13.7481C2.88498 13.8754 3.01931 13.9658 3.1719 14.0027C3.25086 14.0113 3.33073 14.0039 3.40677 13.981C3.48281 13.958 3.55348 13.9201 3.61459 13.8694L13.0257 8.63848Z" fill="currentColor"/>
<path d="M3.24485 14.0004C3.37322 14.0005 3.49621 13.9564 3.61387 13.8682L13.025 8.63917C13.1595 8.58951 13.2437 8.48323 13.2776 8.32032C13.3523 8.19261 13.3523 8.04382 13.2776 7.87394C13.2448 7.7552 13.1606 7.64892 13.025 7.5551L3.61387 2.07097C3.47488 2.00835 3.32751 1.9871 3.17175 2.00719C3.03013 2.03593 2.9038 2.09969 2.79277 2.1985C2.71202 2.34065 2.66991 2.48944 2.66645 2.64489V13.3581C2.67073 13.5137 2.71283 13.6412 2.79277 13.7407C2.90364 13.881 3.02995 13.966 3.17175 13.9958C3.1963 13.9989 3.22068 14.0004 3.24485 14.0004ZM3.24484 14.6671C3.19261 14.6671 3.13962 14.6638 3.08733 14.6571L3.03479 14.6482C2.74103 14.5866 2.47647 14.4157 2.2697 14.1541C2.10023 13.9432 2.00837 13.6801 2.00001 13.3764L1.99976 13.3581L1.99992 2.63008C2.00584 2.36376 2.07755 2.10777 2.21307 1.8692L2.2674 1.77356L2.34956 1.70045C2.54922 1.52277 2.78125 1.40614 3.03918 1.3538L3.0865 1.34596C3.36414 1.3102 3.63685 1.3501 3.88773 1.46312L3.91946 1.47741L13.4042 7.00676C13.655 7.1802 13.8234 7.3954 13.9054 7.647C14.0317 7.96032 14.0312 8.27777 13.9052 8.55614C13.8122 8.87097 13.6022 9.11493 13.3147 9.24087L3.97122 14.4324C3.74972 14.5862 3.49965 14.6671 3.24484 14.6671Z" fill="currentColor" fill-opacity="0.25"/>
</g>
<defs>
<clipPath id="clip0_382_133">
<rect width="16" height="16" fill="currentColor"/>
</clipPath>
</defs>
</svg>

<svg xmlns="http://www.w3.org/2000/svg" width="16" height="16" fill="none" viewBox="0 0 16 16"><g fill="currentColor" clip-path="url(#a)"><path d="M13.026 8.638a.4.4 0 0 0 .252-.318.47.47 0 0 0 0-.447.6.6 0 0 0-.252-.319L3.615 2.071a.72.72 0 0 0-.822.134.93.93 0 0 0-.126.447v10.713a.62.62 0 0 0 .126.383.66.66 0 0 0 .379.255.6.6 0 0 0 .443-.134z"/><path fill-opacity=".25" d="M3.245 14a.6.6 0 0 0 .369-.132l9.411-5.229q.202-.075.253-.319.111-.19 0-.446a.6.6 0 0 0-.253-.319L3.614 2.071a.8.8 0 0 0-.442-.064.8.8 0 0 0-.38.192.93.93 0 0 0-.126.446v10.713a.62.62 0 0 0 .127.383q.165.21.379.255a1 1 0 0 0 .073.004m0 .667q-.078 0-.158-.01l-.052-.009a1.32 1.32 0 0 1-.765-.494 1.27 1.27 0 0 1-.27-.778V2.63c.006-.266.078-.522.213-.76l.054-.096.083-.074q.3-.267.69-.346l.046-.008c.278-.036.55.004.802.117l.031.014 9.485 5.53q.378.26.501.64c.127.313.126.63 0 .91a1.06 1.06 0 0 1-.59.684L3.97 14.432a1.27 1.27 0 0 1-.726.235"/></g><defs><clipPath id="a"><path fill="currentColor" d="M0 0h16v16H0z"/></clipPath></defs></svg>
